X:197
T:Lady McIntoshes new Reel. Ru2.197
%%VWML:RutherfordVol2-2249-p99-0
F:http://www.vwml.org/record/RutherfordVol2/2249/p99
Z:vmp.Ruairidh Greig 2015 www.village-music-project.org.uk
M:C|
L:1/8
R:Reel
Q:1/4=120
K:Ddor
Dd2c defd|c_B AG FGEC|Dd2c defg|e>dce d/d/d d2:|
|:defg afdg|e>dcg ecge|defg afgf|ecge d/d/dd2:|
W:Foot all four & Hands across quite round .|
W:The same back again, cross over 2 Couples .|.
W:Lead up to the Top, foot it and cast off :|
W:Foot it Corners & turn .|| Foot it the other Cor
W:ners & turn :|| Lead out sides & turn yr. Partner :|
T:Highland Man kiss'd his mother. Ru2.198, The
B:RUTHERFORD Complete Collection of 200 Country Dances Vol.2; 1759.
Z:vmp.Ruairidh Greig 2015 www.village-music-project.org.uk
M:C|
L:1/8
Q:1/4=120
K:Am
c(gge) gcge|c(gge) dBGB|c(gge) gcge|a^fge dBGB:|
|:ceAe ceAe|ceAe d/c/B/A/ GB|ceAe ceAg|a^fge dBGB:|
W:Cast off 2 Couples .| Cast up again Foot it
W:all four & Hands across the same back again :|
W:The first Man sets to the 2d. Wo. & turns her .||
W:The first Wo. does the same with the 2d. Man :||
W:Cross over half Figure Right Hand & Left :|
